X:51
T: WO BLUEHEN DIE BLUMEN SO SCHOEN
N: B0535
O: Europa, Mitteleuropa, Deutschland, Hochwald, Hellertshausen
R: Wander -, Heimat - Lied
M: 6/8
L: 1/16
K: F
C2 | C3DC2F2E2D2 | C6z4
C2 | B,3A,B,2D2C2B,2 | A,6z4
A,2 | A,3B,C2F2E2D2 | C6z4
C2 | =B,3CD2F3ED2 | C6z4
C2 | E3DC2E3DC2 | E4D2C4
A,2 | C2A,2F,2G,4G,A, | B,3G,A,F,C4
C2 | F4D2C4C2 | D3CG,B,A,4

@@@ Tune index: 2269
